X: 92
T: 88A. NAPOLEON CROSSING THE RHINE
N: Variant of The Blackbird
B: Sam Bayard, "Hill Country Tunes" 1944 #88A
N: Played by Mrs Sarah Armstrong, (near) Derry, PA, Nov 18, 1943.
R: slow march
M: C
L: 1/8
Z: 2010 John Chambers <jc:trillian.mit.edu>
K: D
A2 | B2AF A2Bc | d>cdF G2FG | A2fe dBAG | F2D2 D2 :| A2 |
d>efg a2af | g>fga g2fe | d>e"a."fg a2ag | f2d2 d2fg |
a2fd g2fe | d2B2 g2fe | d2AF ABAG | F2D2 D2 |]
P: Var:
"a."f>g |]

%%sep 2 1 500
%%sep 1 1 500

